p "one"
  $ stack
    [
      -- slow 4 $ chop 3 $ s "lc" # gain 0.7 # speed (slow 5 $ range 0.3 0.5 tri)
    -- , struct "1 0 0 1" $ s "~ lc:2" # gain 1
    --  s "~ ~ ~ lc:3" # gain 1
    degradeBy 0.1 $ ((# speed (irand 1 + sine)) . ply (irand 2 + 1)) $ s "~ ~ ~ ~ lc:4? ~ ~" # gain (slow 4 $ range 0.5 0.8 sine)
    -- , degrade $ iter 3 $ loopAt 2 $ s "~ ~ lc:5 ~ ~ lc:5" # gain 0.5
    -- , iter 3 $ s "~ ~ lc:1 ~ ~" # gain 0.7
    ]

-- d1 $ "[0 0.25]/4" <~ (sound "bd*2 ~ cp hh ~ sn")

