d1 $ chew 4 "0 [<3 2> 1] <3 1*2> <1 [2 4] 1 3>" $ n "[0 3] [2 5] [1 5] [2 3]" # s "drum"

d1 $ chew 4 "0 [<3 2> 1] <3 1*2> <1 [2 4] 1 3>" $ n "0 2*3" # s "drum"

d1 $ weave 16 (pan sine # speed (sine + 1)) [s "future(3,8,<0 2>)", s "drum(5,8,<0 2>)", sound "~ [cp*2 ~]", sound "sn:3*3"]